X: 11806
T: Ellen O'Leary's
R: jig
M: 6/8
K: Dmajor
|:FED EFG|Adc A2G|FDF GE/F/G|FDF EDE|
FED EFG|Adc A2G|FDF GFE|1 DED D2G:|2 DED D2g||
|:fed edc|Adc d2e|fed edc|B/c/dB A2a|
f/g/af edc|Adc A2G|FDF GFE|1 DED D2g:|2 DED D2G||

